dist/image/footer/vk.svg

<svg width="40" height="40" viewBox="0 0 40 40" fill="none" xmlns="http://www.w3.org/2000/svg">
<path d="M20 0.800293C9.39601 0.800293 0.800003 9.39629 0.800003 20.0003C0.800003 30.6043 9.39601 39.2003 20 39.2003C30.604 39.2003 39.2 30.6043 39.2 20.0003C39.2 9.39629 30.604 0.800293 20 0.800293ZM27.384 22.4623C27.384 22.4623 29.082 24.1383 29.5 24.9163C29.512 24.9323 29.518 24.9483 29.522 24.9563C29.692 25.2423 29.732 25.4643 29.648 25.6303C29.508 25.9063 29.028 26.0423 28.864 26.0543H25.864C25.656 26.0543 25.22 26.0003 24.692 25.6363C24.286 25.3523 23.886 24.8863 23.496 24.4323C22.914 23.7563 22.41 23.1723 21.902 23.1723C21.8375 23.1722 21.7734 23.1823 21.712 23.2023C21.328 23.3263 20.836 23.8743 20.836 25.3343C20.836 25.7903 20.476 26.0523 20.222 26.0523H18.848C18.38 26.0523 15.942 25.8883 13.782 23.6103C11.138 20.8203 8.758 15.2243 8.738 15.1723C8.588 14.8103 8.898 14.6163 9.236 14.6163H12.266C12.67 14.6163 12.802 14.8623 12.894 15.0803C13.002 15.3343 13.398 16.3443 14.048 17.4803C15.102 19.3323 15.748 20.0843 16.266 20.0843C16.3631 20.0832 16.4585 20.0584 16.544 20.0123C17.22 19.6363 17.094 17.2263 17.064 16.7263C17.064 16.6323 17.062 15.6483 16.716 15.1763C16.468 14.8343 16.046 14.7043 15.79 14.6563C15.8936 14.5133 16.0301 14.3974 16.188 14.3183C16.652 14.0863 17.488 14.0523 18.318 14.0523H18.78C19.68 14.0643 19.912 14.1223 20.238 14.2043C20.898 14.3623 20.912 14.7883 20.854 16.2463C20.836 16.6603 20.818 17.1283 20.818 17.6803C20.818 17.8003 20.812 17.9283 20.812 18.0643C20.792 18.8063 20.768 19.6483 21.292 19.9943C21.3604 20.0371 21.4393 20.06 21.52 20.0603C21.702 20.0603 22.25 20.0603 23.734 17.5143C24.1917 16.6948 24.5894 15.8432 24.924 14.9663C24.954 14.9143 25.042 14.7543 25.146 14.6923C25.2228 14.6532 25.3079 14.6333 25.394 14.6343H28.956C29.344 14.6343 29.61 14.6923 29.66 14.8423C29.748 15.0803 29.644 15.8063 28.018 18.0083L27.292 18.9663C25.818 20.8983 25.818 20.9963 27.384 22.4623Z" fill="#FF8A00"/>
</svg>

<svg width="40" height="40" fill="none" xmlns="http://www.w3.org/2000/svg"><path d="M20 .8C9.396.8.8 9.396.8 20S9.396 39.2 20 39.2 39.2 30.604 39.2 20 30.604.8 20 .8zm7.384 21.662s1.698 1.676 2.116 2.454c.012.016.018.032.022.04.17.286.21.508.126.674-.14.276-.62.412-.784.424h-3c-.208 0-.644-.054-1.172-.418-.406-.284-.806-.75-1.196-1.204-.582-.676-1.086-1.26-1.594-1.26a.61.61 0 00-.19.03c-.384.124-.876.672-.876 2.132 0 .456-.36.718-.614.718h-1.374c-.468 0-2.906-.164-5.066-2.442-2.644-2.79-5.024-8.386-5.044-8.438-.15-.362.16-.556.498-.556h3.03c.404 0 .536.246.628.464.108.254.504 1.264 1.154 2.4 1.054 1.852 1.7 2.604 2.218 2.604a.6.6 0 00.278-.072c.676-.376.55-2.786.52-3.286 0-.094-.002-1.078-.348-1.55-.248-.342-.67-.472-.926-.52a1.1 1.1 0 01.398-.338c.464-.232 1.3-.266 2.13-.266h.462c.9.012 1.132.07 1.458.152.66.158.674.584.616 2.042-.018.414-.036.882-.036 1.434 0 .12-.006.248-.006.384-.02.742-.044 1.584.48 1.93a.433.433 0 00.228.066c.182 0 .73 0 2.214-2.546.458-.82.855-1.67 1.19-2.548.03-.052.118-.212.222-.274a.533.533 0 01.248-.058h3.562c.388 0 .654.058.704.208.088.238-.016.964-1.642 3.166l-.726.958c-1.474 1.932-1.474 2.03.092 3.496z" fill="#FF8A00"/></svg>
